Newaita-dark/actions/22/outbox.svg

<svg height="22" viewBox="0 0 22 22" width="22" xmlns="http://www.w3.org/2000/svg"><g fill="#e0e0e0"><path d="m3.636719 1.992188c-1.007813 0-1.816407.808593-1.816407 1.816406v14.554687c0 1.007813.808594 1.820313 1.816407 1.820313h14.554687c1.007813 0 1.820313-.8125 1.820313-1.820313v-14.554687c0-1.007813-.8125-1.816406-1.820313-1.816406h-3.183594v1.816406h2.273438c.503906 0 .910156.40625.910156.910156v12.734375c0 .503906-.40625.910156-.910156.910156h-12.734375c-.503906 0-.910156-.40625-.910156-.910156v-12.734375c0-.503906.40625-.910156.910156-.910156h2.273437v-1.816406zm0 0"/><path d="m13.628906 11.988281c-.5.007813-.898437.417969-.890625.917969 0 1.027344-.796875 1.824219-1.824219 1.824219-1.023437 0-1.824218-.796875-1.824218-1.824219.003906-.246094-.089844-.480469-.261719-.652344-.175781-.175781-.410156-.269531-.65625-.265625-.035156 0-.070313.003907-.105469.007813h-5.335937v1.820312h4.667969c.40625 1.5625 1.832031 2.722656 3.515624 2.722656 1.683594 0 3.113282-1.160156 3.519532-2.722656h4.667968v-1.820312h-5.339843c-.042969-.003906-.085938-.007813-.132813-.007813zm0 0"/><path d="m10.003906 6.097656h1.820313v4.535156c0 .25-.203125.453126-.453125.453126h-.910156c-.253907 0-.457032-.203126-.457032-.453126zm0 0"/><path d="m14.097656 6.550781h-6.367187l3.183593-4.546875zm0 0"/></g></svg>

<svg xmlns="http://www.w3.org/2000/svg" xmlns:xlink="http://www.w3.org/1999/xlink" width="22px" height="22px" viewBox="0 0 22 22" version="1.1">
<g id="surface1">
     <defs>
  <style id="current-color-scheme" type="text/css">
   .ColorScheme-Text { color:#eeeeee; } .ColorScheme-Highlight { color:#424242; }
  </style>
 </defs>
<path style="fill:currentColor" class="ColorScheme-Text" d="M 3.636719 1.992188 C 2.628906 1.992188 1.820312 2.800781 1.820312 3.808594 L 1.820312 18.363281 C 1.820312 19.371094 2.628906 20.183594 3.636719 20.183594 L 18.191406 20.183594 C 19.199219 20.183594 20.011719 19.371094 20.011719 18.363281 L 20.011719 3.808594 C 20.011719 2.800781 19.199219 1.992188 18.191406 1.992188 L 15.007812 1.992188 L 15.007812 3.808594 L 17.28125 3.808594 C 17.785156 3.808594 18.191406 4.214844 18.191406 4.71875 L 18.191406 17.453125 C 18.191406 17.957031 17.785156 18.363281 17.28125 18.363281 L 4.546875 18.363281 C 4.042969 18.363281 3.636719 17.957031 3.636719 17.453125 L 3.636719 4.71875 C 3.636719 4.214844 4.042969 3.808594 4.546875 3.808594 L 6.820312 3.808594 L 6.820312 1.992188 Z M 3.636719 1.992188 "/>
     <defs>
  <style id="current-color-scheme" type="text/css">
   .ColorScheme-Text { color:#eeeeee; } .ColorScheme-Highlight { color:#424242; }
  </style>
 </defs>
<path style="fill:currentColor" class="ColorScheme-Text" d="M 13.628906 11.988281 C 13.128906 11.996094 12.730469 12.40625 12.738281 12.90625 C 12.738281 13.933594 11.941406 14.730469 10.914062 14.730469 C 9.890625 14.730469 9.089844 13.933594 9.089844 12.90625 C 9.09375 12.660156 9 12.425781 8.828125 12.253906 C 8.652344 12.078125 8.417969 11.984375 8.171875 11.988281 C 8.136719 11.988281 8.101562 11.992188 8.066406 11.996094 L 2.730469 11.996094 L 2.730469 13.816406 L 7.398438 13.816406 C 7.804688 15.378906 9.230469 16.539062 10.914062 16.539062 C 12.597656 16.539062 14.027344 15.378906 14.433594 13.816406 L 19.101562 13.816406 L 19.101562 11.996094 L 13.761719 11.996094 C 13.71875 11.992188 13.675781 11.988281 13.628906 11.988281 Z M 13.628906 11.988281 "/>
     <defs>
  <style id="current-color-scheme" type="text/css">
   .ColorScheme-Text { color:#eeeeee; } .ColorScheme-Highlight { color:#424242; }
  </style>
 </defs>
<path style="fill:currentColor" class="ColorScheme-Text" d="M 10.003906 6.097656 L 11.824219 6.097656 L 11.824219 10.632812 C 11.824219 10.882812 11.621094 11.085938 11.371094 11.085938 L 10.460938 11.085938 C 10.207031 11.085938 10.003906 10.882812 10.003906 10.632812 Z M 10.003906 6.097656 "/>
     <defs>
  <style id="current-color-scheme" type="text/css">
   .ColorScheme-Text { color:#eeeeee; } .ColorScheme-Highlight { color:#424242; }
  </style>
 </defs>
<path style="fill:currentColor" class="ColorScheme-Text" d="M 14.097656 6.550781 L 7.730469 6.550781 L 10.914062 2.003906 Z M 14.097656 6.550781 "/>
</g>
</svg>
